packages/core/src/svgs/tokens/branded/MXM.svg

<svg width="24" height="24" viewBox="0 0 24 24" fill="none" xmlns="http://www.w3.org/2000/svg">
<path d="M13.7838 3.25H10.135L2 17.5062L3.8375 20.75H20.0813L22 17.5062L13.7838 3.25ZM3.71874 17L10.8094 4.49999H12.3712L6.13374 15.7499H13.3025L14.1338 17H3.71874ZM8.28749 14.5L13.4775 5.15187L20.55 17.4225L19.7618 18.8769L13.4768 8.03999L9.94063 14.5H8.28749ZM11.3749 14.5L11.9999 13.2499L12.625 14.5H11.3749ZM13.4962 10.5024L18.7049 19.4968H4.53936L3.77062 18.25H16.4168L12.7675 11.8294L13.4962 10.5024Z" fill="url(#paint0_linear_364_14305)"/>
<defs>
<linearGradient id="paint0_linear_364_14305" x1="6.86713" y1="4.39999" x2="13.8783" y2="19.9892" gradientUnits="userSpaceOnUse">
<stop stop-color="#18DBEB"/>
<stop offset="1" stop-color="#4AF2CF"/>
</linearGradient>
</defs>
</svg>

<svg xmlns="http://www.w3.org/2000/svg" width="24" height="24" fill="none" viewBox="0 0 24 24">
    <path fill="url(#MXM__a)" d="M13.784 3.25h-3.649L2 17.506l1.838 3.244H20.08L22 17.506zM3.719 17l7.09-12.5h1.562L6.134 15.75h7.169l.83 1.25zm4.568-2.5 5.19-9.348 7.073 12.27-.788 1.455L13.477 8.04 9.94 14.5zm3.088 0L12 13.25l.625 1.25zm2.121-3.998 5.209 8.995H4.539l-.768-1.247h12.646l-3.65-6.42z"/>
    <defs>
        <linearGradient id="MXM__a" x1="6.867" x2="13.878" y1="4.4" y2="19.989" gradientUnits="userSpaceOnUse">
            <stop stop-color="#18DBEB"/>
            <stop offset="1" stop-color="#4AF2CF"/>
        </linearGradient>
    </defs>
</svg>
